healthcode/jkb/static/lvicon.svg

<svg height="88" viewBox="0 0 88 88" width="88" xmlns="http://www.w3.org/2000/svg"><g fill="none" fill-rule="evenodd"><rect fill="#e7f9e5" height="88" rx="4" width="88" y=".000001"/><g fill-rule="nonzero"><path d="m11.8461538 23.6923077h11.8461539v-11.8461539h-11.8461539zm-11.8461538 53.3076923h35.5384615v-35.5384615h-35.5384615zm5.92307692-29.6153846h23.69230768v23.6923077h-23.69230768zm5.92307688 17.7692308h11.8461539v-11.8461539h-11.8461539zm29.6153847-65.1538462v35.5384615h35.5384615v-35.5384615zm29.6153846 29.6153846h-23.6923077v-23.69230768h23.6923077zm0 23.6923077h-11.8461539v-11.8461538h-11.8461538-5.9230769v11.8461538 23.6923077h5.9230769v-23.6923077h5.9230769v5.9230769h17.7692308 5.9230769v-17.7692307h-5.9230769zm-71.0769231-17.7692308h35.5384615v-35.5384615h-35.5384615zm5.92307692-29.61538458h23.69230768v23.69230768h-23.69230768zm59.23076928 5.92307688h-11.8461539v11.8461539h11.8461539zm5.9230769 65.1538462h5.9230769v-11.8461538h-5.9230769zm-11.8461539 0h5.923077v-11.8461538h-5.923077z" fill="#13c700" transform="translate(5.599504 5.722846)"/><g transform="translate(54.7125 35.500001)"><path d="m0 0h16v16h-16z" fill="#000" opacity="0"/><path d="m13.6666667 8.65433333v3.01233337h-3v-2.00033337h-1.00000003v4.04666667h-1v-5.04633333h3.00000003v1.99966663h1v-2.01199997zm-6.33333337.01233334v5.00000003h-5v-5.00000003zm6.33333337 4.00000003v1h-3v-1zm-7.33333337-3.00000003h-3v3.00000003h3zm-1 1.00000003v1h-1v-1zm2-8.33333337v5h-5v-5zm6.33333337 0v5h-5.00000003v-5zm-7.33333337 1h-3v3h3zm6.33333337 0h-3.00000003v3h3.00000003zm-7.33333337 1v1h-1v-1zm6.33333337 0v1h-1v-1z" fill="#1677ff"/></g></g><g transform="translate(14 27.000001)"><rect fill="#fff" height="34" rx="6" width="60"/><text fill="#13c700" font-family="PingFangSC-Medium, PingFang SC" font-size="24" font-weight="400"><tspan x="6" y="25.5">绿码</tspan></text></g></g></svg>

<?xml version="1.0" encoding="UTF-8"?>
<svg width="88px" height="88px" viewBox="0 0 88 88" version="1.1" xmlns="http://www.w3.org/2000/svg" xmlns:xlink="http://www.w3.org/1999/xlink">
    <title>有效icon-绿码</title>
    <g id="页面-1" stroke="none" stroke-width="1" fill="none" fill-rule="evenodd">
        <g id="画板" transform="translate(-58.000000, -824.000000)">
            <g id="有效icon-绿码" transform="translate(58.000000, 824.000001)">
                <rect id="矩形" fill="#E7F9E5" x="0" y="0" width="88" height="88" rx="4"></rect>
                <g id="二维码" transform="translate(5.599504, 5.722845)" fill-rule="nonzero">
                    <g fill="#13C700" id="形状">
                        <path d="M11.8461538,23.6923077 L23.6923077,23.6923077 L23.6923077,11.8461538 L11.8461538,11.8461538 L11.8461538,23.6923077 Z M0,77 L35.5384615,77 L35.5384615,41.4615385 L0,41.4615385 L0,77 Z M5.92307692,47.3846154 L29.6153846,47.3846154 L29.6153846,71.0769231 L5.92307692,71.0769231 L5.92307692,47.3846154 Z M11.8461538,65.1538462 L23.6923077,65.1538462 L23.6923077,53.3076923 L11.8461538,53.3076923 L11.8461538,65.1538462 Z M41.4615385,0 L41.4615385,35.5384615 L77,35.5384615 L77,0 L41.4615385,0 Z M71.0769231,29.6153846 L47.3846154,29.6153846 L47.3846154,5.92307692 L71.0769231,5.92307692 L71.0769231,29.6153846 Z M71.0769231,53.3076923 L59.2307692,53.3076923 L59.2307692,41.4615385 L47.3846154,41.4615385 L41.4615385,41.4615385 L41.4615385,53.3076923 L41.4615385,77 L47.3846154,77 L47.3846154,53.3076923 L53.3076923,53.3076923 L53.3076923,59.2307692 L71.0769231,59.2307692 L77,59.2307692 L77,41.4615385 L71.0769231,41.4615385 L71.0769231,53.3076923 Z M0,35.5384615 L35.5384615,35.5384615 L35.5384615,0 L0,0 L0,35.5384615 Z M5.92307692,5.92307692 L29.6153846,5.92307692 L29.6153846,29.6153846 L5.92307692,29.6153846 L5.92307692,5.92307692 Z M65.1538462,11.8461538 L53.3076923,11.8461538 L53.3076923,23.6923077 L65.1538462,23.6923077 L65.1538462,11.8461538 Z M71.0769231,77 L77,77 L77,65.1538462 L71.0769231,65.1538462 L71.0769231,77 Z M59.2307692,77 L65.1538462,77 L65.1538462,65.1538462 L59.2307692,65.1538462 L59.2307692,77 Z"></path>
                    </g>
                    <g transform="translate(49.112996, 29.777155)">
                        <rect id="矩形" fill="#000000" opacity="0" x="0" y="0" width="16" height="16"></rect>
                        <path d="M13.6666667,8.65433333 L13.6666667,11.6666667 L10.6666667,11.6666667 L10.6666667,9.66633333 L9.66666667,9.66633333 L9.66666667,13.713 L8.66666667,13.713 L8.66666667,8.66666667 L11.6666667,8.66666667 L11.6666667,10.6663333 L12.6666667,10.6663333 L12.6666667,8.65433333 L13.6666667,8.65433333 L13.6666667,8.65433333 Z M7.33333333,8.66666667 L7.33333333,13.6666667 L2.33333333,13.6666667 L2.33333333,8.66666667 L7.33333333,8.66666667 Z M13.6666667,12.6666667 L13.6666667,13.6666667 L10.6666667,13.6666667 L10.6666667,12.6666667 L13.6666667,12.6666667 Z M6.33333333,9.66666667 L3.33333333,9.66666667 L3.33333333,12.6666667 L6.33333333,12.6666667 L6.33333333,9.66666667 Z M5.33333333,10.6666667 L5.33333333,11.6666667 L4.33333333,11.6666667 L4.33333333,10.6666667 L5.33333333,10.6666667 Z M7.33333333,2.33333333 L7.33333333,7.33333333 L2.33333333,7.33333333 L2.33333333,2.33333333 L7.33333333,2.33333333 L7.33333333,2.33333333 Z M13.6666667,2.33333333 L13.6666667,7.33333333 L8.66666667,7.33333333 L8.66666667,2.33333333 L13.6666667,2.33333333 L13.6666667,2.33333333 Z M6.33333333,3.33333333 L3.33333333,3.33333333 L3.33333333,6.33333333 L6.33333333,6.33333333 L6.33333333,3.33333333 Z M12.6666667,3.33333333 L9.66666667,3.33333333 L9.66666667,6.33333333 L12.6666667,6.33333333 L12.6666667,3.33333333 Z M5.33333333,4.33333333 L5.33333333,5.33333333 L4.33333333,5.33333333 L4.33333333,4.33333333 L5.33333333,4.33333333 Z M11.6666667,4.33333333 L11.6666667,5.33333333 L10.6666667,5.33333333 L10.6666667,4.33333333 L11.6666667,4.33333333 Z" id="形状" fill="#1677FF"></path>
                    </g>
                </g>
                <g id="编组-15" transform="translate(14.000000, 27.000000)">
                    <rect id="矩形" fill="#FFFFFF" x="0" y="0" width="60" height="34" rx="6"></rect>
                    <text id="绿码" font-family="PingFangSC-Medium, PingFang SC" font-size="24" font-weight="400" fill="#13C700">
                        <tspan x="6" y="25.5">绿码</tspan>
                    </text>
                </g>
            </g>
        </g>
    </g>
</svg>
